X:1
T:Över sjö och land
R:Polska (hambo)
Z:2007-09-05
S:efter [[!Skinnar Albin]] i Malung
O:Dalarna
M:3/4
L:1/8
K:Dm
f3/2e/2 d3/2^c/2 df|e3/2^c/2 A3B|A3/2G/2 FE D^C|D3/2E/2 FG A2|
f3/2e/2 d3/2^c/2 df|e3/2^c/2 A3B|A3/2G/2 FE D^C|D2 D4:|
|:^C3/2D/2 E3 E|D3/2E/2 F3 F|E3/2F/2 G2 GE|F3/2G/2 A3 A|
B3/2A/2 G^F GB|A3/2G/2 F3 F|E3/2D/2 ^CD E3/2^C/2|D2D4:|

